icons/linear-ele-arrow-right.svg

<svg xmlns="http://www.w3.org/2000/svg" width="32px" height="32px" viewBox="0 0 32 32" version="1.1">
    <title>linear-ele-arrow-right</title>
    <g id="linear-ele-arrow-right" stroke-width="1" fill-rule="evenodd">
        <path d="M18.2071068,6.29289322 L27.2071068,15.2928932 C27.5976311,15.6834175 27.5976311,16.3165825 27.2071068,16.7071068 L18.2071068,25.7071068 C17.8165825,26.0976311 17.1834175,26.0976311 16.7928932,25.7071068 C16.4023689,25.3165825 16.4023689,24.6834175 16.7928932,24.2928932 L24.085,17 L5.5,17 C4.94771525,17 4.5,16.5522847 4.5,16 C4.5,15.4477153 4.94771525,15 5.5,15 L24.085,15 L16.7928932,7.70710678 C16.4324093,7.34662282 16.4046797,6.77939176 16.7097046,6.38710056 L16.7928932,6.29289322 C17.1834175,5.90236893 17.8165825,5.90236893 18.2071068,6.29289322 Z" id="&#36335;&#24452;" fill-rule="nonzero" />
    </g>
</svg>

<svg xmlns="http://www.w3.org/2000/svg" viewBox="0 0 32 32"><path fill="currentColor" d="m18.207 6.293 9 9a1 1 0 0 1 0 1.414l-9 9a1 1 0 0 1-1.414-1.414L24.085 17H5.5a1 1 0 0 1 0-2h18.585l-7.292-7.293a1 1 0 0 1-.083-1.32l.083-.094a1 1 0 0 1 1.414 0"/></svg>
